hosted/assets/icon/widgets/light-mode/unused/pydeck.svg

<svg width="50" height="50" viewBox="0 0 50 50" fill="none" xmlns="http://www.w3.org/2000/svg">
<path fill-rule="evenodd" clip-rule="evenodd" d="M19.4891 14.2249C19.7259 13.8196 20.2465 13.6831 20.6518 13.9199L33.8454 21.6304L38.5469 18.8743C38.9519 18.6369 39.4727 18.7728 39.7101 19.1778C39.9475 19.5828 39.8116 20.1035 39.4066 20.3409L34.2759 23.3486C34.0108 23.504 33.6824 23.5042 33.4171 23.3492L19.7941 15.3877C19.3888 15.1508 19.2522 14.6302 19.4891 14.2249Z" fill="black"/>
<path fill-rule="evenodd" clip-rule="evenodd" d="M42.1899 20.4209C42.4247 20.8274 42.2856 21.3472 41.8791 21.5821L35.1853 25.4496L40.2899 28.4273C40.6953 28.6638 40.8323 29.1843 40.5958 29.5898C40.3592 29.9953 39.8388 30.1322 39.4333 29.8957L33.064 26.1803C32.8024 26.0277 32.6417 25.7473 32.6423 25.4443C32.643 25.1414 32.8048 24.8617 33.0671 24.7101L41.0286 20.1101C41.4351 19.8753 41.955 20.0144 42.1899 20.4209Z" fill="black"/>
<path fill-rule="evenodd" clip-rule="evenodd" d="M17.2748 15.5568C17.5195 15.1562 18.0427 15.0299 18.4433 15.2747L27.4433 20.7747C27.6944 20.9282 27.8482 21.2006 27.85 21.4949C27.8518 21.7892 27.7012 22.0634 27.452 22.2199L20.3211 26.6968C20.053 26.8652 19.7135 26.8705 19.4402 26.7108L10.0711 21.2338C9.6658 20.9969 9.52931 20.4763 9.76622 20.0711C10.0031 19.6658 10.5237 19.5293 10.929 19.7662L19.8534 24.9832L25.3859 21.5098L17.5568 16.7253C17.1562 16.4805 17.03 15.9574 17.2748 15.5568Z" fill="black"/>
<path fill-rule="evenodd" clip-rule="evenodd" d="M26.5051 23.658C26.7697 23.4974 27.1007 23.4933 27.3692 23.6473L38.1615 29.8397C38.4256 29.9912 38.5885 30.2724 38.5885 30.5769V33.7316C38.5885 34.201 38.2079 34.5816 37.7385 34.5816C37.269 34.5816 36.8885 34.201 36.8885 33.7316V31.0692L26.9584 25.3716L23.6819 27.3609L33.1985 32.6652C33.4677 32.8153 33.6346 33.0994 33.6346 33.4077V37C33.6346 37.4695 33.2541 37.85 32.7846 37.85C32.3152 37.85 31.9346 37.4695 31.9346 37V33.907L21.5785 28.1348C21.3142 27.9874 21.1481 27.7107 21.1425 27.4081C21.1369 27.1055 21.2925 26.8228 21.5512 26.6657L26.5051 23.658Z" fill="black"/>
<path fill-rule="evenodd" clip-rule="evenodd" d="M6.75157 21.5972C6.97402 21.1838 7.48948 21.029 7.90286 21.2515L14.9642 25.0515C15.234 25.1967 15.4048 25.4758 15.4113 25.7821C15.4177 26.0884 15.2588 26.3745 14.9954 26.5309L9.74991 29.6454V32C9.74991 32.4694 9.36935 32.85 8.89991 32.85C8.43046 32.85 8.04991 32.4694 8.04991 32V29.1615C8.04991 28.8616 8.20802 28.5838 8.46595 28.4307L12.8353 25.8364L7.09727 22.7485C6.68388 22.526 6.52911 22.0106 6.75157 21.5972ZM16.5978 26.1346C16.8669 25.9715 17.2041 25.9704 17.4743 26.1318L31.0974 34.2703C31.3542 34.4237 31.5114 34.7008 31.5114 35V38C31.5114 38.4694 31.1309 38.85 30.6614 38.85C30.192 38.85 29.8114 38.4694 29.8114 38V35.4823L17.0415 27.8535L12.0499 30.8788V34.1154C12.0499 34.5848 11.6693 34.9654 11.1999 34.9654C10.7305 34.9654 10.3499 34.5848 10.3499 34.1154V30.4C10.3499 30.1028 10.5052 29.8271 10.7593 29.6731L16.5978 26.1346Z" fill="black"/>
<path fill-rule="evenodd" clip-rule="evenodd" d="M24.4 11.2627C24.6565 11.1156 24.9709 11.1123 25.2304 11.254L48.2304 23.8156C48.4986 23.962 48.6675 24.2412 48.6729 24.5467C48.6782 24.8523 48.5191 25.1372 48.2562 25.2929L25.2562 38.916C24.9927 39.072 24.6656 39.0743 24.4 38.9219L1.57695 25.8296C1.31281 25.6781 1.1499 25.3969 1.1499 25.0923C1.1499 24.7878 1.31281 24.5066 1.57695 24.355L24.4 11.2627ZM24.8332 12.9741L3.70815 25.0923L24.8161 37.2008L46.1045 24.5915L24.8332 12.9741Z" fill="black"/>
<path fill-rule="evenodd" clip-rule="evenodd" d="M47.9999 23.7115C48.4693 23.7115 48.8499 24.092 48.8499 24.5615V28C48.8499 28.2987 48.6932 28.5754 48.4371 28.729L25.2602 42.6289C24.9961 42.7873 24.6671 42.7905 24.4 42.6373L1.57695 29.5449C1.31281 29.3934 1.1499 29.1122 1.1499 28.8076V25.0923C1.1499 24.6228 1.53046 24.2423 1.9999 24.2423C2.46934 24.2423 2.8499 24.6228 2.8499 25.0923V28.3153L24.8134 40.9145L47.1499 27.5187V24.5615C47.1499 24.092 47.5305 23.7115 47.9999 23.7115Z" fill="black"/>
<path fill-rule="evenodd" clip-rule="evenodd" d="M24.1499 42V38H25.8499V42H24.1499Z" fill="black"/>
<path d="M33.5 25.5L34 17.5L40.5 20L48 16.5V24.5L39.5 28.5L33.5 25.5Z" fill="white"/>
<path d="M34 25.5V17L41 13L48 15.5V24.5L40 29L34 25.5Z" fill="#EBB803"/>
<path fill-rule="evenodd" clip-rule="evenodd" d="M40.6404 12.2298C40.8598 12.1274 41.1123 12.1234 41.3347 12.2188L48.3347 15.2188C48.6473 15.3527 48.8499 15.66 48.8499 16V24.5C48.8499 24.8025 48.6891 25.0823 48.4277 25.2345L40.5256 29.8369C40.2684 29.9867 39.9517 29.991 39.6905 29.8484L33.0926 26.2461C32.8197 26.0971 32.6499 25.811 32.6499 25.5V16.5C32.6499 16.1698 32.8412 15.8694 33.1404 15.7298L40.6404 12.2298ZM41.0147 13.9311L35.4377 16.5337L40.1057 18.9132L45.9607 16.0508L41.0147 13.9311ZM47.1499 17.3617L40.9478 20.3938V27.6237L47.1499 24.0114V17.3617ZM39.2478 27.6699V20.384L34.3499 17.8874V24.9957L39.2478 27.6699Z" fill="black"/>
</svg>

<svg width="50" height="50" fill="none" xmlns="http://www.w3.org/2000/svg"><path fill-rule="evenodd" clip-rule="evenodd" d="M19.49 14.225a.85.85 0 011.162-.305l13.193 7.71 4.702-2.756a.85.85 0 01.86 1.467l-5.131 3.008a.85.85 0 01-.859 0l-13.623-7.961a.85.85 0 01-.305-1.163zm22.7 6.195a.85.85 0 01-.31 1.162l-6.695 3.868 5.105 2.977a.85.85 0 01-.857 1.469l-6.369-3.716a.85.85 0 01.003-1.47l7.962-4.6a.85.85 0 011.16.31zm-24.915-4.863a.85.85 0 011.168-.282l9 5.5a.85.85 0 01.009 1.445l-7.13 4.477a.85.85 0 01-.882.014l-9.369-5.477a.85.85 0 11.858-1.468l8.924 5.217 5.533-3.473-7.83-4.785a.85.85 0 01-.281-1.168zm9.23 8.101a.85.85 0 01.864-.01l10.792 6.192a.85.85 0 01.428.737v3.155a.85.85 0 01-1.7 0v-2.663l-9.93-5.697-3.277 1.989 9.517 5.304a.85.85 0 01.436.743V37a.85.85 0 11-1.7 0v-3.093l-10.357-5.772a.85.85 0 01-.027-1.47l4.954-3.007z" fill="#000"/><path fill-rule="evenodd" clip-rule="evenodd" d="M6.752 21.597a.85.85 0 011.15-.346l7.062 3.8a.85.85 0 01.031 1.48L9.75 29.645V32a.85.85 0 01-1.7 0v-2.838c0-.3.158-.578.416-.731l4.37-2.595-5.739-3.087a.85.85 0 01-.345-1.152zm9.846 4.538a.85.85 0 01.876-.003l13.623 8.138a.85.85 0 01.414.73v3a.85.85 0 11-1.7 0v-2.518l-12.77-7.628-4.991 3.025v3.236a.85.85 0 01-1.7 0V30.4a.85.85 0 01.41-.727l5.838-3.538z" fill="#000"/><path fill-rule="evenodd" clip-rule="evenodd" d="M24.4 11.263a.85.85 0 01.83-.009l23 12.562a.85.85 0 01.026 1.477l-23 13.623a.85.85 0 01-.856.006L1.577 25.83a.85.85 0 010-1.475L24.4 11.263zm.433 1.711L3.708 25.092l21.108 12.109 21.289-12.61-21.272-11.617z" fill="#000"/><path fill-rule="evenodd" clip-rule="evenodd" d="M48 23.712c.47 0 .85.38.85.85V28a.85.85 0 01-.413.729l-23.177 13.9a.85.85 0 01-.86.008L1.577 29.545a.85.85 0 01-.427-.737v-3.716a.85.85 0 111.7 0v3.223l21.963 12.6L47.15 27.518v-2.957c0-.47.38-.85.85-.85z" fill="#000"/><path fill-rule="evenodd" clip-rule="evenodd" d="M24.15 42v-4h1.7v4h-1.7z" fill="#000"/><path d="M33.5 25.5l.5-8 6.5 2.5 7.5-3.5v8l-8.5 4-6-3z" fill="#fff"/><path d="M34 25.5V17l7-4 7 2.5v9L40 29l-6-3.5z" fill="#EBB803"/><path fill-rule="evenodd" clip-rule="evenodd" d="M40.64 12.23a.85.85 0 01.695-.011l7 3a.85.85 0 01.515.781v8.5a.85.85 0 01-.422.735l-7.902 4.602a.85.85 0 01-.836.011l-6.597-3.602a.85.85 0 01-.443-.746v-9c0-.33.191-.63.49-.77l7.5-3.5zm.375 1.701l-5.577 2.603 4.668 2.38 5.855-2.863-4.946-2.12zm6.135 3.43l-6.202 3.033v7.23l6.202-3.613v-6.65zM39.248 27.67v-7.286l-4.898-2.497v7.109l4.898 2.674z" fill="#000"/></svg>
